X:1
T:Title
%%score { 1 | ( 2 3 ) }
L:1/8
M:4/4
K:Ab
V:1 treble nm="Grand Piano"
V:2 bass 
V:3 bass 
V:1
 z4 z2 [CE]2 | [CE]2 [CE]2 [B,D]2 [A,C]2 | [CE]6 [EA]2 | [FA]2 [FA]2 [EG]2 [DF]2 | [CE]6 [CE]2 | %5
 G2 G2 F2 E2 | A6 A2 | [=DA]2 [DA]2 [DG]2 [DF]2 | [EB]6 z2 | [Ec]4 [Fd]4 | [Ec]6 [=EB]2 | %11
 [FA]4 [EG]2 [DF]2 | [CE]6 z2 | [CA]4 [Ec]2 [_Ge]2 | [_Ge]2 d2 [EFc]2 [DFB]2 | %15
 [CEA]4 [B,DG]2 [B,DG]2 |[M:3/4] [A,CA]6 |] %17
V:2
 z4 z2 [A,,A,]2 | [A,,A,]2 [A,,A,]2 [A,,E,]2 [A,,E,]2 | [A,,A,]6 [C,A,]2 | %3
 [D,A,]2 [D,A,]2 [D,A,]2 [D,A,]2 | [A,,A,]6 [A,,A,]2 | [E,B,D]2 [E,B,D]2 [E,A,D]2 [E,G,D]2 | %6
 [F,A,C]6 [F,A,C]2 | [B,,F,]2 [B,,F,]2 [B,,B,]2 [B,,A,]2 | [E,G,]6 z2 | [A,,A,]4 [A,,A,]4 | %10
 [A,,A,]6 [C,G,]2 | [D,F,]4 [D,A,]2 [D,A,]2 | [A,,A,]6 z2 | [A,,E,]4 [A,,A,]2 [C,A,]2 | %14
 z2 F2 D,2 D,2 | E,4 E,2 E,2 |[M:3/4] A,,6 |] %17
V:3
 x8 | x8 | x8 | x8 | x8 | x8 | x8 | x8 | x8 | x8 | x8 | x8 | x8 | x8 | [D,A,]4 z4 | x8 | %16
[M:3/4] x6 |] %17

